!!!OTL: Reuzelied
!!!ARE: Europa, Mitteleuropa, Deutschland
!!!SCT: A0500
!!!YEM: Copyright 1995, estate of Helmut Schaffrath.
**kern
*ICvox
*Ivox
*M3/4
*k[]
*C:
{2c
4e
=1
2g
4g
=2
2a
4a
=3
2g
4g
=4
2a
4a
=5
2g}
{4g
=6
4f
4e
4d
=7
2e
4g
=8
2f
4d
=9
2e
4f
=10
2e
4d
=11
2c}
{4c
=12
2e
4f
=13
2.g
=14
4f
4e
4d
=15
2.e}
==
!!!AGN: Romanze, Ballade, Lied
!! 14. Jh.
!!!ONB: ESAC (Essen Associative Code) Database: ALTDEU
!!!AMT: simple triple
!!!AIN: vox
!!!EED: Helmut Schaffrath
!!!EEV: 1.0
*-
